X: 10930
T: Drumfinn Snow
R: jig
M: 6/8
K: Eminor
BEE BEE|AFD AFD|BEE BEE|GAB AFD|
BEE BEE|AFD AFD|GFG cBA|cBA GFD:|
efg fed|cde dcB|efg gfg|agf gfe|
efg fed|cde dcB|ABA c2B|ABA c2B|
efg fed|cde dcB|efg gfg|agf gfe|
efg fed|cde dcB|ABA cBA|cBA cBA|

